X:10
T:Mollan (cher the Mollan (1600-1818)
Z:id:hn-air-19
M:3/4
L:1/8
K:G
G2 | G2 G2 | G2 G2 | G2 


*****************************


9000 3 0.20920877 

<start
A:Champain (1690)
Z:id:hn-barndance-4
M:C|
L:1/8
K:G
G2 | G2A2 B2A2 | G2G2 G2G2 | G2G2 G2G2 | G2G2


*****************************


9100 3 2.8687153 

<start
A:Champains (1890-1898)
Z:id:hn-barndance-10
M:C|
L:1/8
K:G
GA | B2B2 B2GB | d2d2 d2B2 | B2B2 B2GA


*****************************


9200 3 1.7017388 

<start
A:Provin Bornaire Marcher
R:barndance
C:Trad.
R:barndance
Z:id:hn-carolan-4
M:3/4
L:1/8
K:G
GA | B


*****************************


9300 3 1.1380502 

<start
A:Provin Carolan
C:Turlough O'Carolan (1670-1738)
Z:id:hn-carolan-1
M:3/4
L:1/8
K:G
GA | B2 BA | B


*****************************


9400 3 1.1528468 

<start
A:Provin corne
R:carolan
C:Turlough O'Carolan (1670-1738)
Z:id:hn-carolan-11
M:6/8
K:D
A |: B2 d2 


*****************************


9500 3 1.634643 

<start
A:Provin Carolan
C:Turlough O'Carolan (1670-1738)
Z:id:hn-carolan-20
M:C|
L:1/8
K:G
G | A2 A2 A2 |


*****************************


9600 3 1.0659636 

<start
A:Charolan (1670-1738)
H:Also played in G
Z:id:hn-carolan-24
M:3/4
L:1/8
K:G
GA | B2 B2 BA | B2 BA


*****************************


9700 3 1.9995443 

<start
A:Charolan (1670-1738)
H:Originally in G
Z:id:hn-carolan-27
M:3/4
L:1/8
K:G
GA | B2 B2 B2 | B2 B2 


*****************************


9800 3 1.5245094 

<start
A:Prior andermand
Z:id:hn-hf-1
M:C|
K:D
A2AA BAGA|B2d2 d2Bd|edcB AGAB|c2A2 A2:|
|:Bd|edcB AGAB|c2d


*****************************


9900 3 1.2183907 

<start
A:Prion Garkan
Z:id:hn-hf-18
M:C|
L:1/8
K:Ador
A2AB | A2FA BAGA | BAGF G2AB | ABAG A2BA |
B2BA BAB


*****************************


10000 3 1.3341594 

<start
A:Marth Bange
Z:id:hn-hf-22
M:C|
L:1/8
K:G
G2 | B2B2 B2B2 | B2B2 B2B2 | d2d2 d2BA | B2B2 B2dB | A2


*****************************


10100 3 1.3123251 

<start
Z:id:hn-hornpipe-6
M:C|
K:D
D2FA d2de|fedB ABdB|ABAG FAde|fdef gfed|cAGA G2:|
|:Bd|gfge dBGB|A2AG 


*****************************


10200 3 1.293806 

<start
Z:id:hn-hornpipe-11
M:C|
K:G
G2||:|
|:BG|ABcd|edcB|AGAB cAGF|G2GF G2:|
|:Bd|gfge dBGB|AGFG A2GA|B2


*****************************


10300 3 1.2575804 

<start
D:Patrick Bancest to Masse March
R:hornpipe
H:Also played in A, see #27
Z:id:hn-hornpipe-17
M:C|
K


*****************************


10400 3 1.6559978 

<start
D:Paddy Glackin: Fannan: The Danny & Parts of the Warst The
R:hornpipe
D:Padraigh & Marsh Hornpipe


*****************************


10500 3 2.093417 

<start
A:Province
H:See also #28
D:Paddy Glackin: In 2
Z:id:hn-hornpipe-27
M:C|
K:G
BA|GBdB GBAG|F2D2 D2:


*****************************


10600 3 0.7096899 

<start
A:Province
H:See also #21
Z:id:hn-hornpipe-29
M:C|
K:G
BA|B2dB A2Bc|d2dB A2Bc|dg~g2 edBd|(3efg dB 


*****************************


10700 3 1.246853 

<start
A:Province
H:See also #28
D:Matt Molloy & Cally & Parts of the Cappes
R:hornpipe
D:Matt Molloy & C


*****************************


10800 3 1.1044604 

<start
Z:id:hn-hornpipe-38
M:C|
K:G
Bc|d2Bd g2fe|dcBA G2AB|cBcA G2:|
|:Bc|dg~g2 gfed|cBcd efge|fded cBcd|


*****************************


10900 3 1.0682559 

<start>
